X:1
T:Menuet
T:Menuet
T:W.A. Mozart
C:W.A. Mozart
%%score { 1 | 2 }
L:1/8
M:3/4
K:F
V:1 treble nm="Piano" snm="Pno."
V:2 bass 
V:1
!mf! (!3!fa) .!1!c2 .c2 | (!3!df) .!1!B2 .B2 | (!3!Ac) .!1!F2 .!2!E2 |!>(! (E4 F2)!>)! | %4
"_cresc." (!1!CE) .G2 .G2 | (CF) .A2 .A2 | (3CEG .!5!B2 .!4!A2 |!>(! (A4 G2)!>)! :| %8
!p! (c_e) .A2 .A2 | (Bd) .G2 .G2 | (Ac) .^F2 .F2 | (^F4 G2) |!mp! (Bd) .G2 .G2 | (Ac) .F2 .F2 | %14
 (GB) .E2 .E2 | (E4 F2) |!mf! (fa) .c2 .c2 | (df) .B2 .B2 | (Ac .F2) .E2 |!>(! (E4 F2)!>)! | %20
!mp! (fa) .c2 .c2 | (df) .B2 .B2 |!>(! (Ac) .F2 .E2!>)! | (E4 F2) |] %24
V:2
 F,4 A,2 | B,4 D2 | C4 C,2 | !1!F,2 C,2 F,,2 | !2!C,6 | C,6 | !5!C,2 .E,2 .F,2 | C2 G,2 C,2 :| %8
 ^F,6 | G,6 | (C2 .D2) .D,2 | G,2 D,2 F,,2 | E,6 | F,6 | (B,2 .C2) .C,2 | F,2 C,2 F,,2 | A,6 | %17
 B,6 | C4 C,2 | D,6 | A,6 | B,6 | C4 C,2 | F,2 C,2 F,,2 |] %24

